assets/2023/icons/jsx_dark.svg

<!-- Copyright 2000-2023 JetBrains s.r.o. and contributors. Use of this source code is governed by the Apache 2.0 license. -->
<svg width="16" height="16" viewBox="0 0 16 16" fill="none" xmlns="http://www.w3.org/2000/svg">
<path d="M8 9.00002C8.55229 9.00002 9 8.55231 9 8.00002C9 7.44774 8.55229 7.00002 8 7.00002C7.44772 7.00002 7 7.44774 7 8.00002C7 8.55231 7.44772 9.00002 8 9.00002Z" fill="#D6AE58"/>
<path fill-rule="evenodd" clip-rule="evenodd" d="M11.4999 1.93786C12.3545 2.43124 12.5569 3.83167 12.1725 5.59099C13.8883 6.13774 15 7.01324 15 8.00002C15 8.98677 13.8884 9.86226 12.1726 10.409C12.557 12.1684 12.3546 13.5688 11.5001 14.0622C10.6455 14.5556 9.33146 14.0306 8.00002 12.818C6.66856 14.0306 5.35451 14.5556 4.49993 14.0622C3.64536 13.5688 3.44298 12.1684 3.8274 10.409C2.1116 9.86226 1 8.98677 1 8.00002C1 7.01324 2.11166 6.13774 3.82753 5.59098C3.44312 3.83165 3.64551 2.43121 4.50007 1.93783C5.35462 1.44445 6.66861 1.96938 8.00002 3.18193C9.33141 1.9694 10.6454 1.44449 11.4999 1.93786ZM11.0001 13.1962C10.9342 13.2342 10.7832 13.2847 10.4662 13.202C10.1434 13.1178 9.72408 12.9111 9.23687 12.5466C9.06346 12.4168 8.88653 12.2709 8.70764 12.1097C9.03843 11.7483 9.36541 11.3477 9.68168 10.9129C10.2164 10.8564 10.727 10.7735 11.2054 10.6677C11.2556 10.9032 11.2935 11.1294 11.3191 11.3444C11.3912 11.9486 11.3606 12.4151 11.2721 12.7367C11.1852 13.0526 11.0659 13.1581 11.0001 13.1962ZM8.35159 10.9963C8.23473 11.1372 8.1174 11.2723 8.00001 11.4016C7.88263 11.2723 7.76529 11.1372 7.64843 10.9963C7.76489 10.9988 7.88211 11 8 11C8.1179 11 8.23512 10.9988 8.35159 10.9963ZM10.946 9.70083C10.7753 9.73787 10.5995 9.77192 10.419 9.80271C10.4793 9.70306 10.5391 9.60216 10.598 9.50004C10.657 9.39786 10.7146 9.29565 10.7707 9.19347C10.8343 9.36519 10.8927 9.53447 10.946 9.70083ZM9.73198 9.00004C9.92585 8.66424 10.1023 8.32984 10.2615 7.99988C10.1024 7.67 9.92593 7.3357 9.73212 7C9.53829 6.66427 9.33698 6.34429 9.13083 6.04153C8.76552 6.01437 8.38771 6.00002 8 6.00002C7.6123 6.00002 7.2345 6.01437 6.8692 6.04153C6.66305 6.34429 6.46172 6.66429 6.26788 7.00004C6.07407 7.33572 5.89763 7.67001 5.73853 7.99988C5.89767 8.32984 6.07415 8.66422 6.26802 9C6.46186 9.33575 6.66318 9.65575 6.86934 9.95852C7.23459 9.98567 7.61235 10 8 10C8.38766 10 8.76542 9.98567 9.13068 9.95852C9.33683 9.65576 9.53815 9.33577 9.73198 9.00004ZM10.5981 6.5C10.6571 6.60208 10.7146 6.70419 10.7707 6.80627C10.8342 6.63465 10.8926 6.46545 10.9459 6.29918C10.7752 6.26216 10.5995 6.22813 10.4191 6.19736C10.4795 6.297 10.5392 6.39789 10.5981 6.5ZM9.68183 5.08717C10.2165 5.14368 10.7269 5.22652 11.2053 5.3323C11.2554 5.09682 11.2933 4.87067 11.319 4.65566C11.391 4.05148 11.3604 3.58499 11.272 3.2633C11.1851 2.94743 11.0658 2.84191 10.9999 2.80389C10.9341 2.76586 10.783 2.71529 10.466 2.798C10.1432 2.88223 9.72394 3.08899 9.23673 3.45349C9.06338 3.58318 8.88649 3.72905 8.70765 3.89019C9.03849 4.25162 9.36551 4.65233 9.68183 5.08717ZM11.3635 7.99986C11.5819 7.50859 11.7654 7.0251 11.9129 6.55794C12.142 6.63227 12.3568 6.71254 12.5558 6.79785C13.1151 7.03753 13.5038 7.29725 13.7382 7.53472C13.9683 7.76789 14 7.92397 14 8.00002C14 8.07607 13.9683 8.23215 13.7382 8.46532C13.5038 8.70279 13.1151 8.96251 12.5558 9.2022C12.3568 9.28749 12.142 9.36774 11.913 9.44205C11.7654 8.97482 11.5819 8.49123 11.3635 7.99986ZM6.31835 10.9129C5.78359 10.8564 5.27303 10.7735 4.7946 10.6677C4.74444 10.9032 4.70655 11.1294 4.6809 11.3444C4.60884 11.9486 4.63942 12.4151 4.72789 12.7368C4.81476 13.0526 4.93407 13.1582 4.99993 13.1962C5.06579 13.2342 5.21683 13.2848 5.53381 13.2021C5.85665 13.1179 6.27592 12.9111 6.76313 12.5466C6.93655 12.4169 7.11349 12.2709 7.29239 12.1097C6.9616 11.7483 6.63462 11.3477 6.31835 10.9129ZM5.22931 9.19347C5.16573 9.36519 5.1073 9.53447 5.05403 9.70083C5.22474 9.73788 5.40056 9.77192 5.58106 9.80271C5.52067 9.70306 5.46096 9.60214 5.40199 9.5C5.34301 9.39784 5.28544 9.29563 5.22931 9.19347ZM4.08697 9.44206C4.23456 8.97482 4.41809 8.49124 4.63653 7.99987C4.41814 7.50859 4.23466 7.0251 4.08709 6.55794C3.85805 6.63227 3.64322 6.71254 3.44417 6.79785C2.8849 7.03753 2.4962 7.29725 2.26184 7.53472C2.03173 7.76789 2 7.92397 2 8.00002C2 8.07607 2.03173 8.23215 2.26184 8.46532C2.4962 8.70279 2.8849 8.96251 3.44417 9.2022C3.64319 9.28749 3.85797 9.36775 4.08697 9.44206ZM5.40186 6.50004C5.34293 6.60211 5.28542 6.70421 5.22934 6.80627C5.16579 6.63465 5.1074 6.46546 5.05416 6.29918C5.22478 6.26216 5.4005 6.22813 5.58091 6.19735C5.52052 6.297 5.46082 6.39791 5.40186 6.50004ZM8 5.00002C7.88206 5.00002 7.7648 5.00127 7.64829 5.00374C7.7652 4.86283 7.88259 4.7276 8.00002 4.5983C8.11745 4.7276 8.23483 4.86283 8.35174 5.00375C8.23522 5.00127 8.11795 5.00002 8 5.00002ZM6.3182 5.08717C6.63452 4.65233 6.96154 4.25161 7.29238 3.89019C7.11353 3.72903 6.93664 3.58315 6.76327 3.45345C6.27606 3.08896 5.85678 2.88219 5.53395 2.79796C5.21696 2.71526 5.06593 2.76583 5.00007 2.80385C4.93421 2.84188 4.8149 2.94739 4.72803 3.26326C4.63956 3.58496 4.60898 4.05145 4.68104 4.65563C4.70668 4.87064 4.74457 5.0968 4.79472 5.3323C5.27308 5.22652 5.78354 5.14368 6.3182 5.08717Z" fill="#D6AE58"/>
</svg>

<svg xmlns="http://www.w3.org/2000/svg" width="16" height="16" fill="none" viewBox="0 0 16 16"><path fill="#D6AE58" d="M8 9a1 1 0 1 0 0-2 1 1 0 0 0 0 2"/><path fill="#D6AE58" fill-rule="evenodd" d="M11.5 1.938c.854.493 1.057 1.894.672 3.653C13.888 6.138 15 7.013 15 8s-1.112 1.862-2.827 2.409c.384 1.76.182 3.16-.673 3.653-.854.494-2.169-.031-3.5-1.244-1.331 1.213-2.645 1.738-3.5 1.244-.855-.493-1.057-1.894-.673-3.653C2.112 9.862 1 8.987 1 8s1.112-1.862 2.828-2.409c-.385-1.76-.182-3.16.672-3.653.855-.494 2.169.031 3.5 1.244 1.331-1.213 2.645-1.738 3.5-1.244M11 13.196c-.066.038-.217.089-.534.006-.323-.084-.742-.29-1.23-.655a8 8 0 0 1-.528-.437q.497-.544.974-1.197c.534-.057 1.045-.14 1.523-.245q.075.353.114.676c.072.605.042 1.071-.047 1.393-.087.316-.206.421-.272.46m-2.648-2.2q-.176.211-.352.406-.176-.195-.352-.406a16 16 0 0 0 .704 0m2.594-1.295q-.255.055-.527.102a17 17 0 0 0 .352-.61q.095.258.175.508M9.732 9q.29-.505.53-1A15 15 0 0 0 9.13 6.042a15 15 0 0 0-2.262 0A15 15 0 0 0 5.74 8a15 15 0 0 0 1.13 1.959 15 15 0 0 0 2.262 0q.31-.455.601-.959m.866-2.5q.09.153.173.306.095-.257.175-.507a12 12 0 0 0-.527-.102l.18.303m-.916-1.413c.534.057 1.045.14 1.523.245a8 8 0 0 0 .114-.676c.072-.605.041-1.071-.047-1.393-.087-.316-.206-.421-.272-.46-.066-.037-.217-.088-.534-.005-.323.084-.742.291-1.23.655q-.26.195-.528.437c.33.362.658.762.974 1.197M11.363 8c.219-.491.402-.975.55-1.442q.344.112.643.24c.56.24.948.5 1.182.737.23.233.262.389.262.465s-.032.232-.262.465c-.234.238-.623.498-1.182.737a8 8 0 0 1-.643.24q-.222-.702-.55-1.442m-5.045 2.913a14 14 0 0 1-1.523-.245q-.075.353-.114.676c-.072.605-.042 1.071.047 1.393.087.316.206.421.272.46.066.037.217.088.534.005.323-.084.742-.29 1.23-.655q.26-.195.528-.437-.497-.544-.974-1.197M5.23 9.193q-.095.258-.175.508a12 12 0 0 0 .527.102 17 17 0 0 1-.352-.61m-1.142.25c.148-.468.331-.952.55-1.443a14 14 0 0 1-.55-1.442 8 8 0 0 0-.643.24c-.56.24-.948.5-1.182.737C2.032 7.768 2 7.924 2 8s.032.232.262.465c.234.238.623.498 1.182.737q.3.128.643.24M5.402 6.5q-.09.153-.173.306a12 12 0 0 1-.175-.507q.255-.055.527-.102zM8 5q-.177 0-.352.004.176-.211.352-.406.176.195.352.406zm-1.682.087q.477-.653.974-1.197a8 8 0 0 0-.529-.437c-.487-.364-.906-.57-1.229-.655-.317-.083-.468-.032-.534.006s-.185.143-.272.46c-.088.321-.119.787-.047 1.392q.039.322.114.676c.478-.105.989-.188 1.523-.245" clip-rule="evenodd"/></svg>
